src/app/assets/svg/menu.svg

<?xml version="1.0" encoding="UTF-8"?>
<svg width="24px" height="24px" viewBox="0 0 24 24" version="1.1" xmlns="http://www.w3.org/2000/svg" xmlns:xlink="http://www.w3.org/1999/xlink">
    <title>Icon / 24px / bars-regular</title>
    <desc>Created with Sketch.</desc>
    <g id="Icon-/-24px-/-bars-regular" stroke="none" stroke-width="1" fill="none" fill-rule="evenodd">
        <path d="M20.28125,6.84374997 L3.71874996,6.84374997 C3.45988277,6.84374997 3.24999996,6.63386716 3.24999996,6.37499997 L3.24999996,5.12499997 C3.24999996,4.86613278 3.45988277,4.65624996 3.71874996,4.65624996 L20.28125,4.65624996 C20.5401172,4.65624996 20.75,4.86613278 20.75,5.12499997 L20.75,6.37499997 C20.75,6.63386716 20.5401172,6.84374997 20.28125,6.84374997 Z M20.28125,13.09375 L3.71874996,13.09375 C3.45988277,13.09375 3.24999996,12.8838672 3.24999996,12.625 L3.24999996,11.375 C3.24999996,11.1161328 3.45988277,10.90625 3.71874996,10.90625 L20.28125,10.90625 C20.5401172,10.90625 20.75,11.1161328 20.75,11.375 L20.75,12.625 C20.75,12.8838672 20.5401172,13.09375 20.28125,13.09375 Z M20.28125,19.34375 L3.71874996,19.34375 C3.45988277,19.34375 3.24999996,19.1338672 3.24999996,18.875 L3.24999996,17.625 C3.24999996,17.3661328 3.45988277,17.15625 3.71874996,17.15625 L20.28125,17.15625 C20.5401172,17.15625 20.75,17.3661328 20.75,17.625 L20.75,18.875 C20.75,19.1338672 20.5401172,19.34375 20.28125,19.34375 Z" id="bars-regular" fill="#545454"></path>
    </g>
</svg>

<svg xmlns="http://www.w3.org/2000/svg" width="24" height="24"><defs/><path fill="#545454" fill-rule="evenodd" d="M20.281 6.844H3.72a.469.469 0 01-.469-.469v-1.25c0-.259.21-.469.469-.469H20.28c.26 0 .469.21.469.469v1.25c0 .259-.21.469-.469.469zm0 6.25H3.72a.469.469 0 01-.469-.469v-1.25c0-.259.21-.469.469-.469H20.28c.26 0 .469.21.469.469v1.25c0 .259-.21.469-.469.469zm0 6.25H3.72a.469.469 0 01-.469-.469v-1.25c0-.259.21-.469.469-.469H20.28c.26 0 .469.21.469.469v1.25c0 .259-.21.469-.469.469z"/></svg>
